actions/symbolic/format-text-bold-symbolic.svg

<svg viewBox="0 0 16 16" xmlns="http://www.w3.org/2000/svg"><path d="m4 3v2h1 4c .42816 0 1 .61414 1 1v1h-3-2c-.91927 0-1.7356.38396-2.25.96875s-.75639 1.31063-.75 2.03125c.006.72062.26893 1.45271.78125 2.03125s1.31047.96875 2.21875.96875h7 1 .15625.84375v-1-1-5c0-1.63434-1.3198-3-3-3h-2-4zm3 6h3v2h-3c-.39787 0-.56691-.10979-.71875-.28125s-.27877-.43937-.28125-.71875c-.002-.27938.10467-.55354.25-.71875s.32764-.28125.75-.28125z" fill="#bebebe"/></svg>

<svg xmlns="http://www.w3.org/2000/svg" viewBox="0 0 16 16">
  <defs id="defs3051">
    <style type="text/css" id="current-color-scheme">
      .ColorScheme-Text {
        color:#bebebe;
      }
      </style>
  </defs>
 <path 
       style="fill:currentColor;fill-opacity:1;stroke:none"
	 class="ColorScheme-Text"
        d="M 4 3 L 4 5 L 5 5 L 9 5 C 9.42816 5 10 5.61414 10 6 L 10 7 L 7 7 L 5 7 C 4.08073 7 3.2644 7.38396 2.75 7.96875 C 2.2356 8.55354 1.99361 9.27938 2 10 C 2.006 10.72062 2.26893 11.45271 2.78125 12.03125 C 3.29357 12.60979 4.09172 13 5 13 L 12 13 L 13 13 L 13.15625 13 L 14 13 L 14 12 L 14 11 L 14 6 C 14 4.36566 12.6802 3 11 3 L 9 3 L 5 3 L 4 3 z M 7 9 L 10 9 L 10 11 L 7 11 C 6.60213 11 6.43309 10.89021 6.28125 10.71875 C 6.12941 10.54729 6.00248 10.27938 6 10 C 5.998 9.72062 6.10467 9.44646 6.25 9.28125 C 6.39533 9.11604 6.57764 9 7 9 z "
     />
</svg>
